assets/images/bskywordmark_light.svg

<svg width="117" height="26" viewBox="0 0 117 26" fill="none" xmlns="http://www.w3.org/2000/svg">
<g clip-path="url(#clip0_2215_1265)">
<path d="M46.8972 12.2775C48.795 12.9547 49.8013 14.518 49.8013 16.2702C49.8013 19.2357 47.8115 21.0344 43.9934 21.0344H36.1929V4.40807H43.7358C47.3657 4.40807 49.1233 6.25334 49.1233 8.70406C49.1233 10.3404 48.3732 11.5299 46.8972 12.2775ZM43.5009 6.99976H39.3545V11.3423H43.5009C45.1171 11.3423 45.9844 10.5028 45.9844 9.1018C45.9844 7.81793 45.0942 6.99976 43.5009 6.99976ZM39.3545 18.4188H43.8291C45.6095 18.4188 46.569 17.6007 46.569 16.1305C46.569 14.5898 45.6562 13.8182 43.8291 13.8182H39.3545V18.4188ZM54.1863 21.0344H51.2356V4.40807H54.1863V21.0344ZM63.9716 15.734V8.98476H66.9235V21.0344H64.0663V19.2823C63.1521 20.6367 61.887 21.3139 60.2708 21.3139C57.7178 21.3139 56.0537 19.7732 56.0537 16.9713V8.98476H59.0057V16.4804C59.0057 17.9984 59.7557 18.7687 61.2784 18.7687C62.7077 18.7687 63.9716 17.7177 63.9716 15.734ZM80.3576 15.2204V15.9203H71.3161C71.5269 17.9984 72.6747 19.0255 74.4549 19.0255C75.8135 19.0255 76.7277 18.4427 77.2188 17.2986H80.0522C79.4207 19.7493 77.3123 21.3139 74.431 21.3139C72.628 21.3139 71.1746 20.7311 70.075 19.5869C68.9739 18.4415 68.4109 16.9247 68.4109 15.009C68.4109 13.1184 68.9501 11.6004 70.0509 10.4323C71.152 9.28811 72.5812 8.70532 74.3842 8.70532C76.2112 8.70532 77.6632 9.31202 78.7402 10.5028C79.8185 11.6935 80.3564 13.282 80.3564 15.2192L80.3576 15.2204ZM74.3603 10.9937C72.7442 10.9937 71.6205 11.9276 71.3389 13.8648H77.4056C77.1481 12.1139 76.071 10.9937 74.3616 10.9937H74.3603ZM86.8993 21.3616C83.3854 21.3616 81.5345 19.9834 81.3703 17.2042H84.2515C84.4158 18.6995 85.1656 19.2596 86.946 19.2596C88.5381 19.2596 89.3348 18.7687 89.3348 17.8121C89.3348 16.9474 88.773 16.5282 86.9686 16.2236L85.5873 15.9907C82.9398 15.5464 81.6278 14.3318 81.6278 12.348C81.6278 10.0823 83.432 8.70532 86.6403 8.70532C90.0848 8.70532 91.865 10.0584 91.9811 12.7911H89.1946C89.1239 11.3197 88.2577 10.8061 86.6403 10.8061C85.235 10.8061 84.5319 11.2731 84.5319 12.2071C84.5319 13.0479 85.1417 13.4217 86.547 13.6785L88.0697 13.9126C90.9988 14.4488 92.2615 15.5238 92.2615 17.578C92.2615 20.0073 90.2957 21.3616 86.8993 21.3616ZM105.216 21.0344H101.843L98.3297 15.4294L96.5026 17.2507V21.0344H93.5985V4.40807H96.5026V13.9818L101.422 8.98476H104.936L100.367 13.5388L105.216 21.0344ZM112.924 12.0208L113.909 8.98476H117L112.338 22.0149C111.846 23.3454 111.237 24.3033 110.465 24.8408C109.692 25.377 108.591 25.6338 107.139 25.6338C106.646 25.6338 106.225 25.611 105.851 25.5645V23.2511H106.975C108.309 23.2511 108.966 22.4329 108.966 21.3127C108.966 20.7525 108.778 19.9356 108.403 18.8845L104.936 8.9835H108.076L109.059 11.9956C109.785 14.2613 110.418 16.5018 110.98 18.7209C111.495 16.8064 112.151 14.5646 112.924 12.0195V12.0208Z" fill="#253442"/>
<path d="M9.82109 25.973C7.97641 26.1792 6.67551 25.1753 5.38173 24.0559C3.53247 22.4555 2.39286 20.0715 3.93486 18.2039C5.4285 16.395 8.39999 15.9522 8.39999 15.9522C8.39999 15.9522 4.77655 16.4269 2.52081 14.4259C1.37045 13.4055 0.725201 12.0711 0.565244 10.5273C0.359484 8.54145 0.0239153 4.4783 0.000766847 2.97822C-0.0254019 1.28237 0.61944 0.148707 1.74311 0.0239437C4.4319 -0.274597 7.59046 2.24744 10.6598 5.97693C13.6431 9.60178 14.8119 12.1659 14.8119 12.1659C14.8119 12.1659 15.9807 9.60178 18.9639 5.97693C22.0333 2.24744 25.1918 -0.274597 27.8806 0.0239437C29.0043 0.148707 29.6492 1.28237 29.6231 2.97822C29.5998 4.4783 29.2643 8.54145 29.0585 10.5273C28.8985 12.0711 28.2532 13.4055 27.1031 14.4259C24.8473 16.4269 21.2238 15.9522 21.2238 15.9522C21.2238 15.9522 24.1953 16.395 25.689 18.2039C27.231 20.0715 26.0914 22.4555 24.2422 24.0559C22.9483 25.1753 21.6474 26.1792 19.8027 25.973C16.4473 25.5978 14.8119 19.3642 14.8119 19.3642C14.8119 19.3642 13.1764 25.5978 9.82109 25.973Z" fill="#029BFF"/>
</g>
<defs>
<clipPath id="clip0_2215_1265">
<rect width="117" height="26" fill="white"/>
</clipPath>
</defs>
</svg>

<svg xmlns="http://www.w3.org/2000/svg" width="117" height="26" fill="none" viewBox="0 0 117 26"><g clip-path="url(#a)"><path fill="#253442" d="M46.897 12.278c1.898.677 2.904 2.24 2.904 3.992 0 2.966-1.99 4.764-5.808 4.764h-7.8V4.408h7.543c3.63 0 5.387 1.845 5.387 4.296 0 1.636-.75 2.826-2.226 3.573M43.501 7h-4.146v4.342H43.5c1.616 0 2.483-.84 2.483-2.24C45.983 7.818 45.093 7 43.5 7m-4.146 11.419h4.474c1.78 0 2.74-.818 2.74-2.288q0-2.312-2.74-2.313h-4.474zm14.831 2.615h-2.95V4.408h2.95zm9.786-5.3v-6.75h2.952v12.05h-2.858v-1.752q-1.371 2.032-3.795 2.032c-2.553 0-4.217-1.54-4.217-4.343V8.985h2.952v7.495c0 1.518.75 2.289 2.272 2.289 1.43 0 2.694-1.051 2.694-3.035m16.386-.514v.7h-9.042c.21 2.078 1.359 3.106 3.139 3.106 1.359 0 2.273-.583 2.764-1.727h2.833c-.631 2.45-2.74 4.015-5.621 4.015-1.803 0-3.256-.583-4.356-1.727s-1.664-2.662-1.664-4.578c0-1.89.54-3.409 1.64-4.577 1.101-1.144 2.53-1.727 4.333-1.727 1.827 0 3.28.607 4.356 1.798 1.079 1.19 1.616 2.779 1.616 4.716zm-5.998-4.226c-1.616 0-2.74.934-3.021 2.87h6.067c-.258-1.75-1.335-2.87-3.044-2.87zM86.9 21.362c-3.515 0-5.366-1.379-5.53-4.158h2.881c.165 1.495.915 2.056 2.695 2.056 1.592 0 2.389-.491 2.389-1.448 0-.865-.562-1.284-2.366-1.588l-1.382-.233c-2.647-.445-3.96-1.66-3.96-3.643 0-2.266 1.805-3.643 5.013-3.643 3.445 0 5.225 1.353 5.341 4.086h-2.786c-.071-1.471-.937-1.985-2.555-1.985q-2.108 0-2.108 1.401c0 .84.61 1.215 2.015 1.471l1.523.235c2.929.536 4.192 1.61 4.192 3.665 0 2.43-1.966 3.784-5.363 3.784m18.316-.328h-3.373L98.33 15.43l-1.827 1.822v3.783h-2.904V4.408h2.904v9.574l4.919-4.997h3.514l-4.569 4.554zm7.708-9.013.985-3.036H117l-4.662 13.03c-.492 1.33-1.101 2.288-1.873 2.826-.773.536-1.874.793-3.326.793-.493 0-.914-.023-1.288-.07v-2.313h1.124c1.334 0 1.991-.818 1.991-1.938 0-.56-.188-1.377-.563-2.428l-3.467-9.902h3.14l.983 3.013a113 113 0 0 1 1.921 6.725 224 224 0 0 1 1.944-6.701"/><path fill="#029bff" d="M9.821 25.973c-1.845.206-3.145-.798-4.44-1.917-1.849-1.6-2.988-3.985-1.446-5.852C5.428 16.395 8.4 15.952 8.4 15.952s-3.623.475-5.88-1.526C1.37 13.406.726 12.07.566 10.527.36 8.541.024 4.478.001 2.978-.025 1.282.619.148 1.743.024 4.432-.275 7.59 2.247 10.66 5.977c2.983 3.625 4.152 6.189 4.152 6.189s1.169-2.564 4.152-6.19c3.07-3.729 6.228-6.25 8.917-5.952 1.123.125 1.768 1.258 1.742 2.954-.023 1.5-.359 5.563-.565 7.55-.16 1.543-.805 2.877-1.955 3.898-2.256 2-5.88 1.526-5.88 1.526s2.972.443 4.466 2.252c1.542 1.867.402 4.252-1.447 5.852-1.294 1.12-2.595 2.123-4.44 1.917-3.355-.375-4.99-6.609-4.99-6.609s-1.636 6.234-4.99 6.609"/></g><defs><clipPath id="a"><path fill="#fff" d="M0 0h117v26H0z"/></clipPath></defs></svg>
